ix/quote-up-square_bold.svg

<svg viewBox="0 0 24 24" fill="none" xmlns="http://www.w3.org/2000/svg" height="1em" width="1em">
  <path d="M16.19 2H7.81C4.17 2 2 4.17 2 7.81v8.37C2 19.83 4.17 22 7.81 22h8.37c3.64 0 5.81-2.17 5.81-5.81V7.81C22 4.17 19.83 2 16.19 2Zm-4.58 9.84c0 3.08-.67 3.77-2.46 4.83-.12.07-.25.1-.38.1-.26 0-.51-.13-.65-.37a.758.758 0 0 1 .26-1.03c1.21-.72 1.63-.98 1.71-2.79h-1.9c-1.09 0-1.94-.85-1.94-1.94V9.16c0-1.09.85-1.94 1.94-1.94h1.49c1.07 0 1.94.87 1.94 1.94v2.68h-.01Zm6.14 0c0 3.08-.67 3.77-2.46 4.83-.12.07-.25.1-.38.1-.26 0-.51-.13-.65-.37a.758.758 0 0 1 .26-1.03c1.21-.72 1.63-.98 1.71-2.79h-1.91c-1.09 0-1.94-.85-1.94-1.94V9.16c0-1.09.85-1.94 1.94-1.94h1.49c1.07 0 1.94.87 1.94 1.94v2.68Z" fill="#292D32"/>
</svg>

<svg viewBox="0 0 24 24" fill="none" xmlns="http://www.w3.org/2000/svg" height="1em" width="1em">
  <path d="M16.19 2H7.81C4.17 2 2 4.17 2 7.81V16.18C2 19.83 4.17 22 7.81 22H16.18C19.82 22 21.99 19.83 21.99 16.19V7.81C22 4.17 19.83 2 16.19 2ZM11.61 11.84C11.61 14.92 10.94 15.61 9.15 16.67C9.03 16.74 8.9 16.77 8.77 16.77C8.51 16.77 8.26 16.64 8.12 16.4C7.91 16.04 8.03 15.58 8.38 15.37C9.59 14.65 10.01 14.39 10.09 12.58H8.19C7.1 12.58 6.25 11.73 6.25 10.64V9.16C6.25 8.07 7.1 7.22 8.19 7.22H9.68C10.75 7.22 11.62 8.09 11.62 9.16V11.84H11.61ZM17.75 11.84C17.75 14.92 17.08 15.61 15.29 16.67C15.17 16.74 15.04 16.77 14.91 16.77C14.65 16.77 14.4 16.64 14.26 16.4C14.05 16.04 14.17 15.58 14.52 15.37C15.73 14.65 16.15 14.39 16.23 12.58H14.32C13.23 12.58 12.38 11.73 12.38 10.64V9.16C12.38 8.07 13.23 7.22 14.32 7.22H15.81C16.88 7.22 17.75 8.09 17.75 9.16V11.84Z" fill="#292D32"/>
</svg>
